X: 1
T: The First Year In Buncrana
R: reel
M: 4/4
L: 1/8
K: Ador
|:d|e2dB ABcd|eaag efge|dGG2 EGDG|B2AB GABd|
edBd ABcd|eaaf g2fg|efed eaaf|gedg eAA:|
|:d|eaa2 gedB|cdef gfge|dGG2 EGDG|B2AB GABd|
eaa2 gedB|cdef g2fg|efed eaaf|gedg eAA:|

composer: Paddy O'Brien
